X:1
T:Stepwise Bass Progression Example
C:Melodigen Project
M:4/4
L:1/4
Q:1/4=80
K:C
%%score (V1 V2)
V:1 점차 상행하는 멜로디 라인
V:2 하행 순차 진행 베이스
[V:1] "C"E2 G2 | "G/B"D2 G2 | "Am"C2 E2 | "Em/G"B,2 E2 | "F"A,2 C2 | "C/E"G,2 C2 | "Dm7"F,2 A,2 | "G7"G,2 B,2 |]
[V:2] [K:C bass] C,2 C,2 | B,,2 B,,2 | A,,2 A,,2 | G,,2 G,,2 | F,,2 F,,2 | E,,2 E,,2 | D,,2 D,,2 | G,,2 G,,2 |]

2. 상행 순차 진행
